X:1
T:Behold, the Bridegroom Comes
T:John Marchant Whyte, 1890
T:Behold, the Bridegroom Comes
T:Public Domain
T:Public Domain
T:Public Domain
T:Public Domain
C:John Marchant Whyte, 1890
Z:Public Domain
%%score ( 1 2 ) ( 3 4 )
L:1/8
M:4/4
K:Ab
V:1 treble 
V:2 treble 
V:3 bass 
V:4 bass 
V:1
 [CA]>[DB] | [Ec]2 [Ec]2 [Ec]2 [EB]>[EA] | [Ae]2 [Ae]2 [Ae]3 [Ae] | [Ae]3 [Ac] [EA]2 [Ac]2 | %4
w: 1.~We shall|hear a voice, an im-|mor- tal voice, “Be-|hold, the Bride- groom|
w: 2.~When the|voice shall cry, “Go ye|forth to- night, Be-|hold, the Bride- groom|
w: 3.~Bro- ther,|trim your lamp, have it|burn- ing bright, “Be-|hold, the Bride- groom|
w: 4.~Hast thou|made a vow? hast- en|ye to pay, “Be-|hold, the Bride- groom|
 [GB]6 [CE]>[CE] | [EA]2 [EA]2 [EA]2 [EG]>[EA] | [Ac]2 [GB]2 [GB]2 [EG]>[EA] | %7
w: comes!” At the|mid- night watch, in the|dark- ness deep, When a-|
w: comes!” Then the|pulse will cease, and the|heart grow still, And the|
w: comes!” He will|sure- ly come, though He|seem- eth late, Be at|
w: comes!” For when|He has come, and hath|closed the door, And ye|
 [GB]2 [GB]2 [Gd]2 [Ec]>[EB] | [EA]2 [Ac]2 [Ac]2 [EA]>[Ec] | [Ae]2 [Ae]2 [Ac]2 [EA]>[Ec] | %10
w: cross our souls hea- vy|slum- bers creep, We shall|hear that voice, that im-|
w: eyes will close, and the|blood grow chill, And the|soul will take its e-|
w: peace with Him, nor a|mo- ment wait, You will|hear the cry ere the|
w: stand and pray, “O- pen,|we im- plore,” It will|be too late— pay your|
 [Fd]2 [Fd]2 [Fd]2 [_FA]2 | [Ec]3 [EA] [EB]2 [EB]2 | [EA]6 z2 || %13
w: mor- tal voice, “Be-|hold, the Bride- groom|comes!”|
w: ter- nal flight, “For|lo, the Bride- groom|comes!”|
w: morn- ing light, “Be-|hold, the Bride- groom|comes!”|
w: vows to- day, “Be-|hold, the Bride- groom|comes!”|
"^Refrain" [ce]3 [df] [ce][Ac] [EA]>[Ac] | [ce]2 [df]2 [ce]3 z | [Ae]3 [Ae] [Gd][Ac] [GB]>A | %16
w: |||
w: Oh, be rea- dy when the|Bride- groom comes!|Oh, be rea- dy when the|
w: |||
w: |||
 [Ac]2 [GB]2 [GB]2 E>E | A2 c3 z A>G | B2 d3 z B>d | c2 A3 z [Ac]>[EA] | [ce]6 [Ac]2 | %21
w: |||||
w: groom comes! At the noon-|In the even- ing,|mid- night, in the|Oh, be rea- dy,|be rea-|
w: |||||
w: |||||
 [Ae]3 [Af] [Ae][Ec] z2 | [Gd]3 [Ge] [Gd][EB] z2 | [Ac]3 [GB] [Bd][Ac] [Bd]>[GB] | %24
w: |||
w: dy, Oh, be rea-|dy when the Bride-|groom comes! * * * *|
w: |||
w: |||
 [EA]2 [EB]2 [EA]2 |] %25
w: |
w: |
w: |
w: |
V:2
 x2 | x8 | x8 | x8 | x8 | x8 | x8 | x8 | x8 | x8 | x8 | x8 | x8 || x8 | x8 | x15/2 A/ | x6 C2 | %17
w: |||||||||||||||||
w: |||||||||||||||Bride-|tide,|
 E6 E2 | E6 E2 | E6 x2 | x8 | x8 | x8 | x8 | x6 |] %25
w: ||||||||
w: At the|morn- ing,|Oh,||||||
V:3
 A,>A, | A,2 A,2 A,2 [A,D]>[A,C] | [A,C]2 [A,C]2 [A,C]3 [A,C] | [A,C]3 [A,E] [A,C]2 [A,E]2 | %4
w: ~ ~|~ ~ ~ ~ ~|~ ~ ~ ~|~ ~ ~ ~|
 [E,E]6 A,>A, | [A,C]2 [A,C]2 [A,C]2 [E,B,]>[E,C] | [E,E]2 [E,D]2 [E,D]2 [E,B,]>[E,C] | %7
w: ~ ~ ~|~ ~ ~ ~ ~|~ ~ ~ ~ ~|
 [E,D]2 [E,D]2 [E,B,]2 [E,A,]>[E,D] | [A,C]2 [A,E]2 [A,E]2 [A,C]>[A,C] | %9
w: ~ ~ ~ ~ ~|~ ~ ~ ~ ~|
 [A,C]2 [A,C]2 [A,E]2 [A,C]>A, | [D,A,]2 [D,A,]2 [D,A,]2 [D,A,]2 | [E,A,]3 [E,C] [E,D]2 [E,D]2 | %12
w: ~ ~ ~ ~ ~|~ ~ ~ ~|~ ~ ~ ~|
 [A,,A,C]6 z2 || z8 | z8 | [A,C]3 [A,C] [E,B,][E,E] [E,D]>[E,C] | [E,E]2 [E,E]2 [E,E]2 (A,>A,) | %17
w: ~|||~ He comes, He comes, He|comes, in the morn- *|
 (C2 E3) z (C>B,) | (D2 B,3) z (D>B,) | (E2 C3) z z2 | z2 [A,C]>[A,C] [A,C]2 [A,E]2 | %21
w: Oh, * be *|He * comes, *|be *|dy when the Bride-|
 [A,C]3 [A,D] [A,C]A, [A,C]2 | [E,B,]6 [E,B,]2 | [E,E]3 [E,E] [E,E][E,E] [E,E]>[E,D] | %24
w: groom comes. * * *|||
 [E,C]2 [E,D]2 [A,,A,C]2 |] %25
w: |
V:4
 A,>A, | A,2 A,2 A,2 x2 | x8 | x8 | x6 A,>A, | x8 | x8 | x8 | x8 | x15/2 A,/ | x8 | x8 | x8 || x8 | %14
w: ~ ~|~ ~ ~|||~ ~|||||~|||||
 x8 | x8 | x6 E,2 | A,6 A,2 | E,6 E,2 | A,6 x2 | x8 | x5 A, x2 | x8 | x8 | x6 |] %25
w: ||ing,|rea- dy,|He comes,|rea-||||||

